X:3059
T:City of Savannah
R:Hornpipe
O:USA
M:4/4
C:F. Livingstone
K:D
(3ABA F>A d>f a>f | g>a b>a g>f e>d | \
c>d e>d c>d B>c | A>B G>A F>F G>^G |
(3ABA G>A d>f a>f | g>a b>a g>f e>d | \
e>b a>g f>e B>c | d2f2 d2z2 :|
|:\
(3efe c>e a>e c'>e | b>e ^g>e a>e b>e | \
(3efe c>e a>e c'>e | b>e ^g>e a2a2 |
(3aba g>a e>a c>a | (2aba f>a d>a A>a |\
(3gag B>g (3fgf A>f | e>A B>c d2 z2 :|


